svg/RSS.svg

<svg width="24" height="24" viewBox="0 0 24 24" fill="none" xmlns="http://www.w3.org/2000/svg">
<rect width="24" height="24" fill="#F5F5F5"/>
<rect width="793" height="822" transform="translate(-418.404 -49.5)" fill="white"/>
<path d="M7.8006 3.24831C11.3216 4.00364 14.3475 5.49631 16.8066 8.13097C18.8065 10.2702 20.0917 12.7879 20.7383 15.6294C21.0127 16.721 21.1042 19.8557 21.1042 19.8557C21.1042 20.3053 20.9544 20.9554 20.289 20.9841C20.1745 20.9856 20.0611 20.9622 19.9565 20.9156C19.8519 20.8691 19.7585 20.8004 19.6827 20.7144C19.4666 20.4626 19.4029 20.1344 19.4137 19.7531C19.4881 17.1958 19.0451 14.7401 17.829 12.4696C15.5654 8.25955 12.0955 5.69323 7.3755 4.90194C6.38899 4.73469 5.35942 4.73379 4.3469 4.70411C3.98278 4.69512 3.67158 4.62768 3.42944 4.42536C3.34349 4.3501 3.27491 4.25699 3.22845 4.15249C3.18199 4.04798 3.15877 3.9346 3.16039 3.8202C3.16039 3.60342 3.24628 3.39552 3.39916 3.24223C3.55204 3.08894 3.7594 3.00283 3.97561 3.00283C3.97561 3.00283 6.16837 2.89672 7.8006 3.24831Z" fill="#A3A3A3"/>
<path d="M15.7908 21.0117C15.6662 21.0012 15.5472 20.9557 15.4473 20.8805C15.1495 20.6521 15.024 20.2285 15.0365 19.7915C15.1038 17.5903 14.6877 15.5014 13.4707 13.6329C11.4609 10.5396 8.55511 8.94985 4.75703 8.91298C4.54627 8.91298 4.33551 8.91298 4.12924 8.92647C3.50863 8.95615 2.78399 8.74663 2.90955 7.87261C2.99923 7.34658 3.84943 7.16134 4.54627 7.16763C6.7193 7.18742 8.35422 7.48505 10.2905 8.51644C13.7433 10.3517 15.8508 13.2004 16.5253 17.0588C16.6867 17.9805 16.8481 18.8069 16.7244 19.8742C16.6715 20.34 16.5863 20.6835 16.2302 20.9038C16.1016 20.985 15.9503 21.0222 15.7988 21.0099L15.7908 21.0117Z" fill="#A3A3A3"/>
<path d="M10.5492 20.4683C10.4572 20.2426 10.4192 19.9984 10.438 19.7553C10.4819 18.687 10.4138 17.635 9.89271 16.6629C8.90619 14.816 7.38606 13.7963 5.28299 13.6956C4.9705 13.6794 4.65739 13.6794 4.3449 13.6956C3.80053 13.7252 3.27947 13.6578 3.11355 13.014C3.10308 12.9646 3.09886 12.9142 3.101 12.8638V12.8476C3.0996 12.8061 3.10413 12.7646 3.11445 12.7244C3.26153 12.1849 3.77272 12.0051 4.32876 11.9889C5.80226 11.9592 7.22463 12.139 8.52145 12.8944C10.7429 14.1883 11.9294 16.1315 12.1142 18.6987C12.1571 19.0712 12.1643 19.447 12.1357 19.8209C12.1236 20.0261 12.0893 20.2293 12.0335 20.427C11.8012 21.1203 10.8514 21.14 10.5492 20.4683Z" fill="#A3A3A3"/>
<path d="M5.12414 20.8553C6.13506 20.8553 6.95457 20.0336 6.95457 19.02C6.95457 18.0064 6.13506 17.1848 5.12414 17.1848C4.11322 17.1848 3.2937 18.0064 3.2937 19.02C3.2937 20.0336 4.11322 20.8553 5.12414 20.8553Z" fill="#A3A3A3"/>
</svg>

<svg fill="none" viewBox="0 0 24 24"><path fill="#F5F5F5" d="M0 0h24v24H0z"/><path fill="white" d="M-418.404-49.5h793v822h-793z"/><path fill="#A3A3A3" d="M7.8 3.248c3.522.756 6.548 2.248 9.007 4.883 2 2.14 3.285 4.657 3.931 7.498.275 1.092.366 4.227.366 4.227 0 .45-.15 1.1-.815 1.128a.8.8 0 0 1-.606-.27c-.216-.251-.28-.58-.27-.96.075-2.558-.368-5.014-1.584-7.284-2.264-4.21-5.734-6.777-10.454-7.568-.986-.167-2.016-.168-3.028-.198-.364-.009-.675-.076-.918-.279a.79.79 0 0 1-.269-.605.82.82 0 0 1 .816-.817s2.192-.106 3.825.245"/><path fill="#A3A3A3" d="M15.79 21.012a.66.66 0 0 1-.343-.131c-.297-.229-.423-.652-.41-1.09.067-2.2-.35-4.29-1.566-6.158-2.01-3.093-4.916-4.683-8.714-4.72-.21 0-.421 0-.628.013-.62.03-1.345-.18-1.22-1.053.09-.526.94-.712 1.637-.705 2.173.02 3.808.317 5.744 1.348 3.453 1.836 5.56 4.684 6.235 8.543.162.921.323 1.748.2 2.815-.053.466-.139.81-.495 1.03a.7.7 0 0 1-.431.106z"/><path fill="#A3A3A3" d="M10.55 20.468a1.6 1.6 0 0 1-.112-.713c.044-1.068-.024-2.12-.545-3.092-.987-1.847-2.507-2.867-4.61-2.967a9 9 0 0 0-.938 0c-.544.03-1.066-.038-1.231-.682a.6.6 0 0 1-.013-.15v-.016a.4.4 0 0 1 .013-.124c.148-.54.659-.719 1.215-.735 1.473-.03 2.896.15 4.192.905 2.222 1.294 3.408 3.237 3.593 5.805q.064.56.022 1.122a3 3 0 0 1-.102.606c-.233.693-1.183.713-1.485.041M5.124 20.855c1.011 0 1.83-.821 1.83-1.835s-.819-1.835-1.83-1.835c-1.01 0-1.83.821-1.83 1.835s.82 1.835 1.83 1.835"/></svg>
